X:1
T:Title
%%score { ( 1 3 ) | ( 2 4 ) }
L:1/8
M:4/4
K:Db
V:1 treble nm="Grand Piano"
V:3 treble 
V:2 bass 
V:4 bass 
V:1
 z4 z2[Q:1/4=100] [DF]>[EG] | [FA]>[Fd] [Gc]>[GB] [FA]>F E>D | F2 [_FB]2 [=FA]4 | %3
 [CEA]>[CE] [_C=D]>[=CE] [CA]2 [EG]2 | G>F F>_F =F2 F>[EG] | [FA]>[Fd] [Gc]>[GB] [FA]>F E>D | %6
 F2 [_FB]2 [=FA]2 [FB]2 | c>_c =c>d c>B F>=G |[M:3/4] [CA]6 |[M:1/4] [DF]>[EG] | %10
[M:4/4] [FA]2 [Fd]2 [Fd]2 [FA]>[Ad] | [Ac]2 B2 B2 E>F | G>F [CEG]>[CEA] [Gc]>[GB] [FA]>[EG] | %13
 [DF]2 [GB]2 [FA]2 [DF]>[EG] | [FA]>[FA] [_F=G]>[=FA] [Fd]2 [FA]>[Ad] | [Ac]>B =A>B [=Ge]4 | %16
 [Ad]>[Ac] [Ad]>e f>[Fd] [Ac]>B |[M:7/8] z2 e2 z z2 |] %18
V:2
 z4 z2 [D,A,]>[D,A,] | [D,D]>[D,A,] [D,B,]>[D,C] [D,D]>[D,A,D] [D,G,D]>[D,F,] | %2
 [D,A,D]2 [D,=G,]2 z2 D2 | A,,>[A,,A,] [A,,A,]>[A,,A,] [A,,E,]2 [C,A,]2 | %4
 [D,B,D]>[D,A,D] [D,A,D]>[D,=G,D] [D,A,D]2 [D,A,D]>[D,A,] | %5
 [D,D]>[D,A,] [D,B,]>[D,C] [D,D]>[D,A,D] [D,G,D]>[D,F,] | [D,A,D]2 [D,=G,]2 [D,A,]2 [D,A,]2 | %7
 [E,A,E]>[E,A,=D] [E,A,E]>[E,A,F] [E,G,E]>[E,G,_D] [E,B,D]>[E,B,D] |[M:3/4] [A,,A,]6 | %9
[M:1/4] [D,A,]>[D,A,] |[M:4/4] [D,D]2 [D,A,]2 [D,A,]2 [D,D]>[F,D] | %11
 [G,D]2 [G,DG]2 [G,DG]2 [G,B,D]>[F,A,D] | [E,A,C]>[D,A,D] A,,>A,, [A,,A,]>[A,,A,] [A,,A,]>[C,A,] | %13
 [D,A,]2 [D,D]2 [D,D]2 [D,A,]>[D,A,] | [D,D]>[D,D] [D,D]>[D,D] [D,A,]2 [D,D]>[F,D] | %15
 [G,D]>[G,DG] [G,CG]>[G,B,G] [E,B,]4 | %16
 [F,D]>[E,E] [F,D]>[K:treble][A,CA] [DA]>[K:bass][D,D] [F,D]>[K:treble][G,DG] | %17
[M:7/8] [A,CG]2[K:bass] C z [D,A,]3 |] %18
V:3
 x8 | x8 | z4 A,2 z2 | x8 | x8 | x8 | x8 | x8 |[M:3/4] x6 |[M:1/4] x2 |[M:4/4] x8 | x8 | x8 | x8 | %14
 x8 | x8 | x8 |[M:7/8] A2 z A, [Fd]3 |] %18
V:4
 x8 | x8 | z4 D,4 | x8 | x8 | x8 | x8 | x8 |[M:3/4] x6 |[M:1/4] x2 |[M:4/4] x8 | x8 | x8 | x8 | %14
 x8 | x8 | x7/2[K:treble] x2[K:bass] x2[K:treble] x/ |[M:7/8] z2[K:bass] [A,,G]2 z z2 |] %18

